!!!!SEGMENT: pl-kozmzk--mzk-m-346--009_walczynski-franciszek--cantantibus-organis-allegro-moderato.krn
!!!cenid: 18xx:2804
!!!COM: Walczyński, Franciszek
!!!COM-rismID: pe30021989
!!!CDT: ~1852-1937
!!!CNT: Polish
!!!GTL: Cantantibus organis op. 10
!!!OTL: 9. Allegro moderato
!!!OMV: 009
!!!PDT: 1898
!!!AGN: Secular
!!!SMS-siglum: PL-KOZmzk
!!!SMS-shelfmark: mzk/m/346
!!!SMS-shelfwork: 001-009 G
!!!SMS-variant:
!!!SMS-altvar:
!!!NIFC-rismSourceID: 1001099615
!!!NIFC-rismChildID: 1001109072
!!!NIFC-islandoraID: pl-kozmzk:7453
!!!URL-pdf-islandora: https://repozytorium.nifc.pl/islandora/object/pl-kozmzk%3A7453/datastream/PDF/view
!!!URL-scan: https://polish.musicsources.pl/pl/lokalizacje/galeria/druki-muzyczne/7581 @EN{Scan on Polish Music Sources Website} @PL{Skany w portalu Dziedzictwo Muzyki Polskiej w otwartym dostępie}
!!!IIIF:
!!!ONB-nifc:
!!!AIN: 1 organ
!!!key:
**kern	**kern	**dynam
*part1	*part1	*part1
*staff2	*staff1	*
*Iorgan	*Iorgan	*
*I"Organo	*I"Organo	*
*clefF4	*clefG2	*
*k[f#]	*k[f#]	*
*G:	*G:	*
*M2/2	*M2/2	*
*met(c|)	*met(c|)	*
=1	=1	=1
*^	*^	*
!	!	!LO:TX:a:B:t=Allegro moderato.	!	!
!	!	!	!	!LO:DY:b=2
1rg	8r	1r	1r	f
.	(8G\L	.	.	.
.	8A\	.	.	.
.	8B\J	.	.	.
.	8d\L	.	.	.
.	8c\	.	.	.
.	8G\	.	.	.
.	8A\J	.	.	.
=2	=2	=2	=2	=2
1r	8B\L	1r	1r	.
.	8A\	.	.	.
.	8G\	.	.	.
.	8E\J	.	.	.
.	8D\L	.	.	.
.	8C\	.	.	.
.	8BB\	.	.	.
.	8AA\J	.	.	.
=3	=3	=3	=3	=3
4r	[1GG)	1rdd	8r	.
.	.	.	8G\L	.
(4Fn/	.	.	8A\	.
.	.	.	8B\J	.
4E/	.	.	8d\L	.
.	.	.	8c\	.
4E-X/	.	.	8G\	.
.	.	.	8A\J	.
=4	=4	=4	=4	=4
8D/L	(2GG\]	1r	8B\L	.
8E/	.	.	8c\	.
8D/	.	.	8B\	.
8C#X/J	.	.	8A\J	.
2F#/	8D\L	.	[2d\	.
.	8E\	.	.	.
.	8D\	.	.	.
.	8Cn\J	.	.	.
=5	=5	=5	=5	=5
8G/)	8BB\)	8r	8d\]	.
!	!	!	!	!LO:DY:a
8rB	8r	(8g/L	8r	f
(4fn/	4r	8a/	4r	.
.	.	8b/J	.	.
4e/	2r	8dd/L	2r	.
.	.	8cc/	.	.
4e-X/	.	8g/	.	.
.	.	8a/J)	.	.
!!linebreak:original
=6	=6	=6	=6	=6
!	!	!	!	!LO:DY:b=2
2d/)	8r	[2b/	(2g\	f
.	(8D\L	.	.	.
.	8C#X\	.	.	.
.	8D\J	.	.	.
[2B/	2D#X\	8b/L]	2f#\)	.
.	.	8a/	.	.
.	.	8g#X/	.	.
.	.	8a/J	.	.
=7	=7	=7	=7	=7
4B/]	8E\L	(8g/L	[1e	.
.	8Dn\	8g#X/	.	.
(8A/L	8C\	8a/	.	.
8G#X/J	8BB\J	8b/J	.	.
2A/	4AA\	8dd/L	.	.
.	.	8cc/	.	.
.	8BB\L	8b/	.	.
.	8C\J	8a/J	.	.
=8	=8	=8	=8	=8
8B/L	1BB	2g/	2e\]	.
8A#X/	.	.	.	.
8B/	.	.	.	.
8G/J	.	.	.	.
4F#/	.	8b/L	2d#X\	.
.	.	8a/	.	.
8B/L	.	8g/	.	.
8An/J	.	8f#/J	.	.
=9	=9	=9	=9	=9
!!LO:LB:g=original
8G/)	8E\)	8e/)	8e\	.
8rB	8r	8r	(8e\L	p
4rB	4r	4r	8g\	.
.	.	.	8a\J	.
2rB	2r	2r	8b\L	.
.	.	.	8g\	.
.	.	.	8f#\	.
.	.	.	8e\J)	.
=10	=10	=10	=10	=10
2d#X/	8r	1r	(2f#\	.
.	(8cn\L	.	.	.
.	8B\	.	.	.
.	8A\J	.	.	.
2B/	8G\L	.	8e\L	.
.	8D#X\	.	8f#\	.
.	8E\	.	8g\	.
.	8Dn\J	.	8g#X\J	.
=11	=11	=11	=11	=11
!	!	!	!	!LO:DY:a
8A/	8C\)	8r	8a\)	fp
8r	8r	(8a/L	8r	.
4r	4r	8cc/	4r	.
.	.	8dd/J	.	.
2r	2r	8ee/L	2r	.
.	.	8cc/	.	.
.	.	8b/	.	.
.	.	8a/J)	.	.
!!linebreak:original
=12	=12	=12	=12	=12
8r	1r	(2b/	(2g#X\	.
(8fn/L	.	.	.	.
8e/	.	.	.	.
8d/J	.	.	.	.
8c/L	.	8a/L	2e\	.
8G#X/	.	8b/	.	.
8A/	.	8cc/	.	.
8c/J	.	8a/J	.	.
=13	=13	=13	=13	=13
4B/	4r	2.g/	4d\	.
!	!LO:TX:i:b=2:t=Ped.	!	!	!
!	!	!	!	!LO:DY:b=2
4B-X/	(4C#X\	.	4e\	f
2A/)	4D\	.	4.d\	.
.	4DD\)	4f#/)	.	.
.	.	.	8cn\	.
=14	=14	=14	=14	=14
!	!	!	!	!LO:DY:a
!	!LO:TX:t=P:problem=drugie pp u dołu systemu	!	!	!LO:HP:a
(4G/	[1GG	[1g	8B\L)	pp <
.	.	.	8B\	.
4Fn/	.	.	8A\	.
.	.	.	8B\J	.
4E/	.	.	8d\L	.
.	.	.	8c\	.
4E-X/	.	.	8G\	.
.	.	.	8A\J	.
=15	=15	=15	=15	=15
!	!	!	!	!LO:HP:a
8D/L	1GG_	1g_	8B\L	[ >
8E/	.	.	8c\	.
8D/	.	.	8B\	.
8C/J	.	.	8A\J	.
!LO:TX:b:i:t=rit.	!	!	!	!
8D/L	.	.	8c\L	.
8Fn/	.	.	8d\	.
8E/	.	.	8c\	.
8E-X/J	.	.	16G\L	.
.	.	.	16A\JJ	.
=16	=16	=16	=16	=16
1D)	1GG;]	1g;]	1B	]
*v	*v	*	*	*
*	*v	*v	*
==	==	==
*-	*-	*-
!!!system-decoration: {(s1,s2)}
!!!ENC: Kamil Watkowski
!!!END: 2021-08-09
!!!YEC: Copyright 2022 Narodowy Instytut Fryderyka Chopina (https://polishscores.org)
!!!YEM: License CC-BY-4.0 (https://creativecommons.org/licenses/by/4.0)
